X: 7565
T: Cockerel In The Creel, The
R: reel
M: 4/4
K: Amixolydian
f|g2ed B2AG|BddG G2B2|g2ed B2AG|AAAB e2ef|
g2ed B2AG|BddG G2B2|d2Bd eAdB|BABd e2e||
f|g2ag aaag|eaaf gagd|eaag aaag|egfd e2g2|
e2de AAAB|edBA GGGB|dBaf gfed|BABd e2e2||
Aeed deed|BGGB eGdB|Aeed deed|BAAB e2g2|
eaag aeef|gefd efge|d2Bd eAdB|BABd e2e||
f|g2gf efge|faef gefd|AaAa aAaf|gefd e2g2|
faAa aeef|gefd efge|d2Bd eAdB|BABd e2e||

